X: 35617
T: Saely Kelly
R: reel
M: 4/4
K: Edorian
GA|"Em"B2E2 E2FA|"Em"B2E2 E2FA|"D"A2"D/C#"A2 "Bm"BAF2|"A"A4 A4|
"Bm"dcB2 B2c2|"Bm"dcB2 "G"B2cd|"A"efed "Em"edcB|"A"TA4"F#m"F2GA|
"Em"B2E2 E2F2|"Bm"DEDC B,2FG|"A"A2A2 A2^GA|"Em"B4 B4|
"D"d2d2 edcd|"Em"e2e2 "Bm"f4|"Em"edBA "Bm"BAFE|"A"E4 E4||
"D"D2D2 D2A2|"Em"GFED F2A2|"Bm"BdBA "D"FAFE|"Bm"TD4 B,4|
"A"eBef "Em"e2B2|"Bm"dcde "D"d2e2|"Bm"fedc "A"edcB|"A"A4 A4|
"Bm"dcde "D"d2e2|"Bm"fefg "D"a2f2|"A"e2ee "Bm"fedB|"A"e4"Em"B4|
"Bm"deff "G"Bcdd|"Bm"BAFE D2B,2|"D"DEFA "Bm"BAFE|"Em"E4E2||

